images/dist/icons/assortment.svg

<svg width="114" height="114" viewBox="0 0 114 114" fill="none" xmlns="http://www.w3.org/2000/svg">
<g filter="url(#filter0_d)">
<path d="M84.5 101H29.5C20.3865 101 13 93.6135 13 84.5V29.5C13 20.3865 20.3865 13 29.5 13H84.5C93.6135 13 101 20.3865 101 29.5V84.5C101 93.6135 93.6135 101 84.5 101Z" fill="#FFE6E2"/>
<path d="M73.5 36.8342H40.5C37.4667 36.8342 35 39.301 35 42.3342V71.6685C35 74.7017 37.4667 77.1685 40.5 77.1685H73.5C76.5332 77.1685 79 74.7017 79 71.6685V42.3342C79 39.301 76.5332 36.8342 73.5 36.8342ZM73.5 73.5H40.5C39.488 73.5 38.6658 72.6777 38.6658 71.6657V46H75.3315V71.6657C75.3343 72.6777 74.512 73.5 73.5 73.5Z" fill="#FC573B"/>
<path d="M69.8096 55.4188C69.7519 55.1713 69.5979 54.9595 69.3779 54.833L63.8779 51.6238C63.7376 51.544 63.5781 51.5 63.4159 51.5H59.7501C59.2441 51.5 58.8344 51.9098 58.8344 52.4158C58.8344 53.4278 58.0121 54.25 57.0001 54.25C55.9881 54.25 55.1659 53.4278 55.1659 52.4158C55.1659 51.9098 54.7561 51.5 54.2501 51.5H50.5844C50.4221 51.5 50.2626 51.544 50.1224 51.6265L44.6224 54.8358C44.4051 54.9623 44.2484 55.174 44.1906 55.4215C44.1329 55.6662 44.1796 55.9275 44.3226 56.1365L47.0726 60.2615C47.3009 60.6025 47.7299 60.7455 48.1259 60.6245L49.6686 60.1075V68.9185C49.6686 69.4245 50.0784 69.8342 50.5844 69.8342H63.4186C63.9246 69.8342 64.3344 69.4245 64.3344 68.9185V60.1075L65.8771 60.6245C66.2704 60.751 66.6994 60.6053 66.9304 60.2615L69.6804 56.1365C69.8206 55.9247 69.8674 55.6635 69.8096 55.4188Z" fill="#FD907E"/>
</g>
<defs>
<filter id="filter0_d" x="0" y="0" width="114" height="114" filterUnits="userSpaceOnUse" color-interpolation-filters="sRGB">
<feFlood flood-opacity="0" result="BackgroundImageFix"/>
<feColorMatrix in="SourceAlpha" type="matrix" values="0 0 0 0 0 0 0 0 0 0 0 0 0 0 0 0 0 0 127 0"/>
<feMorphology radius="12" operator="erode" in="SourceAlpha" result="effect1_dropShadow"/>
<feOffset/>
<feGaussianBlur stdDeviation="12.5"/>
<feColorMatrix type="matrix" values="0 0 0 0 0.988235 0 0 0 0 0.341176 0 0 0 0 0.231373 0 0 0 0.15 0"/>
<feBlend mode="normal" in2="BackgroundImageFix" result="effect1_dropShadow"/>
<feBlend mode="normal" in="SourceGraphic" in2="effect1_dropShadow" result="shape"/>
</filter>
</defs>
</svg>

<svg width="114" height="114" fill="none" xmlns="http://www.w3.org/2000/svg"><g filter="url(#filter0_d)"><path d="M84.5 101h-55C20.387 101 13 93.614 13 84.5v-55C13 20.387 20.387 13 29.5 13h55c9.114 0 16.5 7.387 16.5 16.5v55c0 9.114-7.386 16.5-16.5 16.5z" fill="#FFE6E2"/><path d="M73.5 36.834h-33a5.506 5.506 0 00-5.5 5.5v29.334c0 3.034 2.467 5.5 5.5 5.5h33c3.033 0 5.5-2.466 5.5-5.5V42.334c0-3.033-2.467-5.5-5.5-5.5zm0 36.666h-33a1.836 1.836 0 01-1.834-1.834V46h36.666v25.666A1.831 1.831 0 0173.5 73.5z" fill="#FC573B"/><path d="M69.81 55.419a.91.91 0 00-.432-.586l-5.5-3.21a.937.937 0 00-.462-.123H59.75a.915.915 0 00-.916.916 1.835 1.835 0 01-3.669 0 .916.916 0 00-.915-.916h-3.666a.912.912 0 00-.462.127l-5.5 3.209a.92.92 0 00-.431.586.903.903 0 00.132.715l2.75 4.124a.934.934 0 001.053.363l1.543-.517v8.811c0 .506.41.916.915.916H63.42c.506 0 .915-.41.915-.916v-8.81l1.543.517a.925.925 0 001.053-.364l2.75-4.125a.92.92 0 00.13-.717z" fill="#FD907E"/></g><defs><filter id="filter0_d" x="0" y="0" width="114" height="114" filterUnits="userSpaceOnUse" color-interpolation-filters="sRGB"><feFlood flood-opacity="0" result="BackgroundImageFix"/><feColorMatrix in="SourceAlpha" values="0 0 0 0 0 0 0 0 0 0 0 0 0 0 0 0 0 0 127 0"/><feMorphology radius="12" in="SourceAlpha" result="effect1_dropShadow"/><feOffset/><feGaussianBlur stdDeviation="12.5"/><feColorMatrix values="0 0 0 0 0.988235 0 0 0 0 0.341176 0 0 0 0 0.231373 0 0 0 0.15 0"/><feBlend in2="BackgroundImageFix" result="effect1_dropShadow"/><feBlend in="SourceGraphic" in2="effect1_dropShadow" result="shape"/></filter></defs></svg>
